X: 25
T: Puisque vous / Je ne vous ameray
N: Derived from Ano3031-Puisque_vous__Je_ne_vous_ameray--Pixerecourt_Chansonnier.krn
C: Anonymous
%%abc-version 2.0
%%abcx-abcm2ps-target-version 5.9.1 (29 Sep 2008)
%%abc-creator hum2abc beta
%%abcx-conversion-date 2019/02/16 20:18:27
%%abc-edited-by Jesse Rodin
%%abc-edited-by Chris Gage 03-05-2015
%%abcx-initial-encoding-date 2015/03/13/
%%humdrum-veritas 2853961393
%%humdrum-veritas-data 589138484
%%linebreak <none>
%%barnumbers 0
L: 1/4
M: 2/1
Q: 1/2=120
%%staves [1 2 3 4]
V: 1 clef=treble
V: 2 clef=treble-8
V: 3 clef=treble-8
V: 4 clef=treble-8
K: F
[V:1] c8 | 
[V:2] c8 | 
[V:3] z8 | 
[V:4] z8 | 
[V:1] c8 | 
[V:2] A8 | 
[V:3] c2c2c4 | 
[V:4] z8 | 
[V:1] B8 | 
[V:2] G8 | 
[V:3] d4e4 | 
[V:4] z8 | 
[V:1] A4A4 | 
[V:2] F8 | 
[V:3] f6e2 | 
[V:4] z8 | 
[V:1] A6G2 | 
[V:2] z4A4 | 
[V:3] c8 | 
[V:4] z8 | 
[V:1] B4c4- | 
[V:2] G4A4 | 
[V:3] d4c2B2 | 
[V:4] z8 | 
[V:1] c2A2B4- | 
[V:2] c4d2e2 | 
[V:3] A4G4 | 
[V:4] z8 | 
[V:1] B2A2G4- | 
[V:2] f4e2d2- | 
[V:3] z8 | 
[V:4] d4c2B2 | 
[V:1] G2^F2G4 | 
[V:2] d2c2d4 | 
[V:3] z8 | 
[V:4] A4G4 | 
[V:1] z4c4 | 
[V:2] e4z4 | 
[V:3] z8 | 
[V:4] c2c2c4 | 
[V:1] =B4c4 | 
[V:2] f4g4 | 
[V:3] z8 | 
[V:4] d4e4 | 
[V:1] d4d4 | 
[V:2] a6g2 | 
[V:3] z8 | 
[V:4] f6e2 | 
[V:1] e4c4 | 
[V:2] g4e4 | 
[V:3] z8 | 
[V:4] c8 | 
[V:1] =B2B4A2 | 
[V:2] f6e2 | 
[V:3] z8 | 
[V:4] d4d4 | 
[V:1] c8- | 
[V:2] g6e2 | 
[V:3] z8 | 
[V:4] c8 | 
[V:1] c8 | 
[V:2] f2e2c4 | 
[V:3] z4f4 | 
[V:4] F8 | 
[V:1] z4A4 | 
[V:2] d8 | 
[V:3] f4f4 | 
[V:4] z8 | 
[V:1] G4A4 | 
[V:2] z4d4 | 
[V:3] e4f4 | 
[V:4] z8 | 
[V:1] =B4c4 | 
[V:2] G4A4 | 
[V:3] g4e4 | 
[V:4] z8 | 
[V:1] d6c2 | 
[V:2] B6c2 | 
[V:3] d8 | 
[V:4] z4f4 | 
[V:1] A4d4 | 
[V:2] d8 | 
[V:3] z8 | 
[V:4] f4f4 | 
[V:1] c3=Bd4 | 
[V:2] z4d4 | 
[V:3] z8 | 
[V:4] e4f4 | 
[V:1] e4c2=B2 | 
[V:2] c4g4 | 
[V:3] z8 | 
[V:4] g4e4 | 
[V:1] d8 | 
[V:2] f4a4- | 
[V:3] z4d4 | 
[V:4] d4z4 | 
[V:1] z8 | 
[V:2] a4f4- | 
[V:3] d4d4 | 
[V:4] z8 | 
[V:1] A8- | 
[V:2] f2d2f4 | 
[V:3] d2d2d4 | 
[V:4] z8 | 
[V:1] A4A4 | 
[V:2] e4f2g2 | 
[V:3] c4d4 | 
[V:4] z8 | 
[V:1] D8 | 
[V:2] a6g2 | 
[V:3] f6e2 | 
[V:4] z8 | 
[V:1] A4=B4 | 
[V:2] f4d4 | 
[V:3] d4z4 | 
[V:4] z8 | 
[V:1] G4c4 | 
[V:2] z4c4 | 
[V:3] e2e2e4 | 
[V:4] z8 | 
[V:1] =B2A2c4 | 
[V:2] G4A4 | 
[V:3] d4c4 | 
[V:4] z8 | 
[V:1] z4c4 | 
[V:2] c4z2g2 | 
[V:3] z8 | 
[V:4] e2e2e4 | 
[V:1] d4e4 | 
[V:2] f2e2g4- | 
[V:3] z8 | 
[V:4] d4c4 | 
[V:1] e4e4 | 
[V:2] g4z4 | 
[V:3] z8 | 
[V:4] c2c2c4 | 
[V:1] d2=B2c4 | 
[V:2] G4c4 | 
[V:3] z8 | 
[V:4] d4e4 | 
[V:1] d4f4 | 
[V:2] B2A2F4 | 
[V:3] z8 | 
[V:4] f6e2 | 
[V:1] f3ed3c/=B/ | 
[V:2] B8 | 
[V:3] z8 | 
[V:4] d8 | 
[V:1] c4d4 | 
[V:2] c4G4 | 
[V:3] z8 | 
[V:4] e4d4 | 
[V:1] e2c2c4- | 
[V:2] g8 | 
[V:3] z4e4 | 
[V:4] c8 | 
[V:1] c4=B4 | 
[V:2] g8- | 
[V:3] d4d4 | 
[V:4] G8 | 
[V:1] c8- | 
[V:2] g8- | 
[V:3] c8- | 
[V:4] g8 | 
[V:1] c8 |]  
[V:2] g8 |]  
[V:3] c8 |]  
[V:4] g8 |]  



